X: 1
T:PEA PATCH -- JIG.
C:DAN EMMETT.
B:Coles pg. 82.4
Z:John Walsh <walsh:mat:h.ubc.ca>
M:2/4
L:1/16
Q:1/4=60
Z: Contributed 20020529094424 by John B. Walsh walsh:mat:h.ubc.ca
K:D
((3uA,B,C)S| "4"vD2C2 "4"D2 C"4"D | z uCDE FDEC| z u"4"DCE D2 ((3ABc) | vd<B z uG "4"AFGE|
D8-|DDz uE FDED | z uD D2 D4|d<B z "0"A "4"AFGE|]
|: z uD d2 c4 | (B>.c)(B>.A) FA z uA2 | z2 d2 z2 c2| (B>.c)(B>.A) FDED|
z uD d2 c4 | (B>.c)(B>.A) FA z (vd | f)(dg)(e f)(d"4"e)(c | d)(cd)(B A)(FG)"D.S."E S:|

